public/Img/Home/brand__third.svg

<svg width="166" height="40" viewBox="0 0 166 40" fill="none" xmlns="http://www.w3.org/2000/svg">
<path d="M48.708 11.6835H52.8253V28.7562H48.708V11.6835ZM54.4585 22.3099C54.4585 18.0875 56.9838 15.5682 60.8816 15.5682C64.7793 15.5682 67.3046 18.0875 67.3046 22.3099C67.3046 26.5324 64.8342 29.0658 60.8816 29.0658C56.9289 29.0658 54.4585 26.6027 54.4585 22.3099ZM63.1736 22.3099C63.1736 19.9876 62.2814 18.6224 60.8816 18.6224C59.4816 18.6224 58.6033 20.0298 58.6033 22.3099C58.6033 24.59 59.4679 25.9694 60.8816 25.9694C62.2951 25.9694 63.1736 24.6745 63.1736 22.324V22.3099ZM68.8554 29.5866H72.8081C72.9962 30.0152 73.3143 30.3701 73.7149 30.5983C74.1155 30.8265 74.5773 30.9159 75.0314 30.8533C76.5961 30.8533 77.4196 29.9807 77.4196 28.7139V26.3494H77.3372C77.0091 27.0742 76.4768 27.6814 75.809 28.0928C75.1411 28.5043 74.3683 28.701 73.5904 28.6577C70.5848 28.6577 68.5947 26.3072 68.5947 22.2677C68.5947 18.2283 70.4887 15.6807 73.6453 15.6807C74.4476 15.6485 75.2404 15.8685 75.9174 16.3112C76.5944 16.7539 77.1233 17.3983 77.4332 18.1578V15.8074H81.5506V28.6154C81.5506 31.6978 78.9017 33.6119 74.9903 33.6119C71.3533 33.6119 69.0888 31.937 68.8554 29.6007V29.5866ZM77.4332 22.2958C77.4332 20.2409 76.5137 18.9461 75.0589 18.9461C73.6041 18.9461 72.7121 20.2268 72.7121 22.2958C72.7121 24.3648 73.5904 25.533 75.0589 25.533C76.5274 25.533 77.4332 24.393 77.4332 22.3099V22.2958ZM83.1014 22.2958C83.1014 18.0734 85.6267 15.554 89.5245 15.554C93.4222 15.554 95.9612 18.0734 95.9612 22.2958C95.9612 26.5183 93.4909 29.0517 89.5245 29.0517C85.5582 29.0517 83.1014 26.6027 83.1014 22.3099V22.2958ZM91.8165 22.2958C91.8165 19.9735 90.9244 18.6083 89.5245 18.6083C88.1246 18.6083 87.3149 20.0298 87.3149 22.324C87.3149 24.6182 88.1795 25.9835 89.5794 25.9835C90.9792 25.9835 91.8165 24.6745 91.8165 22.324V22.2958ZM97.5258 12.739C97.5151 12.3128 97.6279 11.8928 97.8501 11.5324C98.0724 11.1719 98.3941 10.8872 98.7742 10.7144C99.1544 10.5417 99.5761 10.4885 99.9858 10.5618C100.395 10.6351 100.775 10.8314 101.075 11.1259C101.376 11.4205 101.585 11.8 101.675 12.2164C101.765 12.6326 101.733 13.067 101.582 13.4645C101.431 13.8618 101.168 14.2044 100.828 14.4486C100.487 14.6928 100.083 14.8277 99.6668 14.8363C99.3912 14.8556 99.1147 14.8164 98.8546 14.7209C98.5945 14.6256 98.3564 14.4759 98.1554 14.2817C97.9543 14.0874 97.7946 13.8526 97.6863 13.5919C97.5779 13.3313 97.5233 13.0505 97.5258 12.7673V12.739ZM97.5258 15.8355H101.643V28.7562H97.5258V15.8355ZM116.59 22.2958C116.59 26.5183 114.764 28.9251 111.635 28.9251C110.833 28.9779 110.033 28.7767 109.347 28.3488C108.659 27.9209 108.116 27.2868 107.792 26.5324H107.709V32.8942H103.592V15.8074H107.709V18.1156H107.792C108.101 17.3487 108.633 16.6982 109.316 16.2524C109.999 15.8067 110.799 15.5874 111.607 15.6244C114.764 15.6807 116.644 18.1016 116.644 22.324L116.59 22.2958ZM112.472 22.2958C112.472 20.2409 111.552 18.9321 110.111 18.9321C108.67 18.9321 107.751 20.255 107.737 22.2958C107.723 24.3367 108.67 25.6457 110.111 25.6457C111.552 25.6457 112.472 24.3648 112.472 22.324V22.2958ZM123.657 15.5399C127.074 15.5399 129.147 17.2008 129.243 19.8609H125.496C125.496 18.946 124.755 18.3691 123.616 18.3691C122.476 18.3691 121.969 18.8194 121.969 19.4809C121.969 20.1424 122.422 20.3535 123.342 20.5506L125.976 21.0995C128.489 21.6484 129.558 22.6899 129.558 24.6464C129.558 27.3206 127.184 29.0377 123.685 29.0377C120.185 29.0377 117.893 27.3206 117.714 24.6886H121.68C121.805 25.6457 122.546 26.2086 123.754 26.2086C124.961 26.2086 125.51 25.8005 125.51 25.1249C125.51 24.4493 125.126 24.3086 124.138 24.0974L121.764 23.5767C119.306 23.0559 118.016 21.7188 118.016 19.7484C118.044 17.2148 120.254 15.5682 123.657 15.5682V15.5399ZM143.297 28.7281H139.33V26.3213H139.248C139.03 27.1293 138.549 27.8366 137.885 28.3256C137.221 28.8146 136.414 29.0559 135.598 29.0095C134.971 29.046 134.346 28.9444 133.762 28.7115C133.178 28.4785 132.649 28.1198 132.212 27.6595C131.775 27.1992 131.44 26.6479 131.228 26.0432C131.016 25.4384 130.934 24.7941 130.986 24.1537V15.8074H135.103V23.1826C135.103 24.7167 135.872 25.533 137.149 25.533C137.448 25.5337 137.743 25.4687 138.016 25.3424C138.29 25.2162 138.533 25.0316 138.73 24.8009C138.928 24.5704 139.075 24.2992 139.161 24.0055C139.249 23.7118 139.274 23.4024 139.235 23.0982V15.8074H143.352L143.297 28.7281ZM145.287 15.8074H149.267V18.2986H149.349C149.568 17.5013 150.038 16.8007 150.686 16.3066C151.334 15.8125 152.124 15.5528 152.931 15.5682C153.753 15.5007 154.569 15.7528 155.218 16.2744C155.866 16.7959 156.299 17.5488 156.431 18.3831H156.513C156.762 17.5399 157.278 16.8057 157.979 16.296C158.68 15.7864 159.526 15.5303 160.384 15.5682C160.943 15.5488 161.502 15.6506 162.021 15.8667C162.54 16.0828 163.008 16.4086 163.396 16.8227C163.785 17.2369 164.084 17.7303 164.275 18.2706C164.465 18.8111 164.542 19.3864 164.501 19.9595V28.7562H160.384V21.0854C160.384 19.6779 159.766 19.0305 158.614 19.0305C158.356 19.0283 158.101 19.0826 157.866 19.1898C157.632 19.2972 157.422 19.4547 157.252 19.6522C157.081 19.8496 156.955 20.0823 156.879 20.3344C156.803 20.5864 156.782 20.8522 156.815 21.1136V28.7562H152.904V21.0292C152.904 19.7343 152.287 19.0305 151.161 19.0305C150.901 19.0306 150.644 19.0873 150.407 19.1966C150.17 19.306 149.958 19.4658 149.785 19.6653C149.613 19.8648 149.483 20.0995 149.406 20.354C149.329 20.6085 149.305 20.877 149.335 21.1417V28.7562H145.218L145.287 15.8074Z" fill="#1D2130"/>
<path d="M37.1939 12.4578C36.4954 10.8201 35.571 9.29375 34.4489 7.92578C32.7903 5.84319 30.7204 4.14444 28.3754 2.94135C26.0304 1.73826 23.4636 1.05809 20.8439 0.945621C18.2241 0.833152 15.6109 1.29092 13.176 2.28881C10.7413 3.28671 8.54016 4.80209 6.71759 6.73524C4.895 8.66837 3.4923 10.9754 2.60179 13.5046C1.71128 16.0337 1.35315 18.7276 1.55097 21.4089C1.7488 24.0901 2.4981 26.6981 3.74955 29.061C5.001 31.424 6.72622 33.4884 8.81167 35.1182C10.1498 36.1849 11.6284 37.0521 13.2035 37.6939C15.4118 38.622 17.7753 39.1 20.1618 39.1014C25.0881 39.0902 29.809 37.0765 33.2898 33.5015C36.7706 29.9266 38.7274 25.0821 38.7309 20.03C38.7346 17.4241 38.2111 14.8458 37.1939 12.4578ZM20.1481 4.81525C22.2912 4.81501 24.4085 5.29539 26.3515 6.22272C25.8777 6.43268 25.3796 6.57931 24.8693 6.65905C23.1902 6.9083 21.6347 7.70772 20.4351 8.93799C19.2355 10.1683 18.456 11.7634 18.2129 13.4854C18.1062 14.451 17.6779 15.3494 17.0004 16.0289C16.3228 16.7084 15.4374 17.1274 14.4936 17.2151C12.8146 17.4644 11.2591 18.2638 10.0595 19.494C8.85982 20.7244 8.08029 22.3195 7.83724 24.0414C7.75496 24.9596 7.37294 25.8225 6.75301 26.4904C5.6834 24.1727 5.20291 21.6151 5.35624 19.0557C5.50957 16.4964 6.29173 14.0184 7.62996 11.8522C8.96818 9.68625 10.819 7.90258 13.01 6.66728C15.2012 5.43198 17.6614 4.78518 20.1618 4.7871L20.1481 4.81525ZM8.79796 29.8825C8.96265 29.7276 9.12734 29.5868 9.29204 29.4179C10.513 28.2039 11.2968 26.6014 11.5154 24.8718C11.604 23.8996 12.0273 22.9915 12.7095 22.3101C13.3657 21.6095 14.2493 21.179 15.1935 21.0998C16.8726 20.8505 18.428 20.051 19.6276 18.8208C20.8273 17.5906 21.6068 15.9954 21.8499 14.2735C21.9092 13.2566 22.3348 12.2986 23.0439 11.5852C23.7165 10.8982 24.6084 10.4833 25.5555 10.417C27.098 10.1994 28.5367 9.49611 29.6728 8.40431C30.9666 9.50507 32.0627 10.8293 32.9118 12.3171C32.8597 12.3894 32.7998 12.4555 32.7334 12.5141C32.0783 13.221 31.196 13.6609 30.2493 13.7527C28.5685 13.9976 27.0107 14.7957 25.8102 16.0267C24.6098 17.2578 23.8317 18.8554 23.5929 20.579C23.4962 21.5479 23.0758 22.4528 22.403 23.1402C21.7301 23.8277 20.8462 24.2555 19.901 24.351C18.2171 24.5984 16.6559 25.3962 15.4492 26.626C14.2427 27.8558 13.4551 29.4519 13.2035 31.1772C13.1296 31.8651 12.8993 32.5257 12.531 33.1056C11.1229 32.2481 9.86172 31.1592 8.79796 29.8825ZM20.1481 35.3152C18.7554 35.3168 17.3695 35.1178 16.0308 34.7241C16.4887 33.8487 16.7863 32.8946 16.9091 31.9091C17.0053 30.9424 17.4237 30.0392 18.0938 29.352C18.7638 28.6649 19.6445 28.2358 20.5873 28.1371C22.2687 27.8907 23.8273 27.0925 25.0297 25.862C26.232 24.6315 27.0136 23.0348 27.2573 21.3109C27.3535 20.3441 27.7719 19.4409 28.4421 18.7538C29.1121 18.0666 29.9928 17.6375 30.9355 17.5388C32.2009 17.37 33.407 16.8869 34.4489 16.1314C35.0275 18.3804 35.096 20.7355 34.6493 23.0158C34.2025 25.2962 33.2524 27.4414 31.8717 29.2867C30.491 31.132 28.7164 32.6286 26.6842 33.6614C24.652 34.6941 22.4162 35.2359 20.1481 35.2449V35.3152Z" fill="#1D2130"/>
</svg>

<svg width="166" height="40" fill="none" xmlns="http://www.w3.org/2000/svg"><path d="M48.708 11.684h4.117v17.072h-4.117V11.684Zm5.75 10.626c0-4.223 2.526-6.742 6.424-6.742 3.897 0 6.423 2.52 6.423 6.742 0 4.222-2.47 6.756-6.423 6.756s-6.423-2.463-6.423-6.756Zm8.716 0c0-2.322-.893-3.688-2.292-3.688-1.4 0-2.279 1.408-2.279 3.688 0 2.28.865 3.66 2.279 3.66 1.413 0 2.292-1.296 2.292-3.646v-.014Zm5.681 7.277h3.953c.188.428.506.783.907 1.011.4.229.862.318 1.316.255 1.565 0 2.389-.872 2.389-2.14V26.35h-.083a3.964 3.964 0 0 1-1.528 1.744 3.822 3.822 0 0 1-2.219.565c-3.005 0-4.995-2.35-4.995-6.39 0-4.04 1.894-6.587 5.05-6.587a3.866 3.866 0 0 1 2.272.63 4.016 4.016 0 0 1 1.516 1.847v-2.35h4.118v12.807c0 3.083-2.65 4.997-6.56 4.997-3.638 0-5.902-1.675-6.136-4.011v-.014Zm8.578-7.291c0-2.055-.92-3.35-2.374-3.35-1.455 0-2.347 1.28-2.347 3.35 0 2.069.878 3.237 2.347 3.237 1.468 0 2.374-1.14 2.374-3.223v-.014Zm5.668 0c0-4.223 2.526-6.742 6.424-6.742 3.897 0 6.436 2.52 6.436 6.742 0 4.222-2.47 6.756-6.436 6.756-3.967 0-6.424-2.45-6.424-6.742v-.014Zm8.716 0c0-2.322-.893-3.688-2.292-3.688-1.4 0-2.21 1.422-2.21 3.716 0 2.294.865 3.66 2.264 3.66 1.4 0 2.238-1.31 2.238-3.66v-.028Zm5.709-9.557c-.01-.426.102-.846.324-1.207.222-.36.544-.645.924-.818.38-.172.802-.226 1.212-.152.409.073.789.27 1.089.564.301.295.51.674.6 1.09.09.417.058.851-.093 1.248-.151.398-.414.74-.754.985-.341.244-.745.379-1.161.387-.276.02-.552-.02-.812-.115a1.995 1.995 0 0 1-.7-.44 2.055 2.055 0 0 1-.469-.69 2.1 2.1 0 0 1-.16-.824v-.028Zm0 3.096h4.117v12.921h-4.117v-12.92Zm19.064 6.46c0 4.223-1.826 6.63-4.955 6.63a3.846 3.846 0 0 1-2.288-.576 3.99 3.99 0 0 1-1.555-1.817h-.083v6.362h-4.117V15.807h4.117v2.309h.083a4.012 4.012 0 0 1 1.524-1.864 3.866 3.866 0 0 1 2.291-.628c3.157.057 5.037 2.478 5.037 6.7l-.054-.028Zm-4.118 0c0-2.054-.92-3.363-2.361-3.363-1.441 0-2.36 1.323-2.374 3.364-.014 2.04.933 3.35 2.374 3.35s2.361-1.281 2.361-3.322v-.028Zm11.185-6.755c3.417 0 5.49 1.66 5.586 4.32h-3.747c0-.914-.741-1.49-1.88-1.49-1.14 0-1.647.45-1.647 1.11 0 .662.453.873 1.373 1.07l2.634.55c2.513.548 3.582 1.59 3.582 3.546 0 2.675-2.374 4.392-5.873 4.392-3.5 0-5.792-1.717-5.971-4.35h3.966c.125.958.866 1.52 2.074 1.52 1.207 0 1.756-.407 1.756-1.083 0-.676-.384-.816-1.372-1.028l-2.374-.52c-2.458-.521-3.748-1.858-3.748-3.829.028-2.533 2.238-4.18 5.641-4.18v-.028Zm19.64 13.188h-3.967v-2.407h-.082a3.675 3.675 0 0 1-1.363 2.005 3.517 3.517 0 0 1-2.287.683 4.278 4.278 0 0 1-1.836-.297 4.373 4.373 0 0 1-1.55-1.052 4.516 4.516 0 0 1-.984-1.617 4.59 4.59 0 0 1-.242-1.89v-8.346h4.117v7.376c0 1.534.769 2.35 2.046 2.35a2.087 2.087 0 0 0 1.581-.732 2.191 2.191 0 0 0 .505-1.703v-7.29h4.117l-.055 12.92Zm1.99-12.92h3.98v2.49h.082a3.752 3.752 0 0 1 1.337-1.991 3.589 3.589 0 0 1 2.245-.739 3.226 3.226 0 0 1 2.287.706 3.383 3.383 0 0 1 1.213 2.11h.082a3.967 3.967 0 0 1 1.466-2.088 3.802 3.802 0 0 1 2.405-.728 3.909 3.909 0 0 1 1.637.299c.519.216.987.542 1.375.956.389.414.688.907.879 1.448.19.54.267 1.115.226 1.688v8.797h-4.117v-7.67c0-1.408-.618-2.055-1.77-2.055a1.765 1.765 0 0 0-1.362.621 1.883 1.883 0 0 0-.437 1.461v7.643h-3.911V21.03c0-1.295-.617-1.998-1.743-1.998-.26 0-.517.056-.754.166a1.85 1.85 0 0 0-.622.468c-.172.2-.302.434-.379.689a1.96 1.96 0 0 0-.071.788v7.614h-4.117l.069-12.949ZM37.194 12.458a18.733 18.733 0 0 0-2.745-4.532 18.659 18.659 0 0 0-6.074-4.985 18.157 18.157 0 0 0-15.2-.653 18.55 18.55 0 0 0-6.457 4.447 19.122 19.122 0 0 0-4.116 6.77A19.493 19.493 0 0 0 3.75 29.06a18.92 18.92 0 0 0 5.062 6.057 17.856 17.856 0 0 0 4.392 2.576 17.98 17.98 0 0 0 6.958 1.407c4.926-.01 9.647-2.024 13.128-5.6 3.48-3.574 5.437-8.419 5.44-13.471a19.26 19.26 0 0 0-1.536-7.572ZM20.148 4.815c2.143 0 4.26.48 6.204 1.408a5.91 5.91 0 0 1-1.483.436 7.794 7.794 0 0 0-4.434 2.279 8.143 8.143 0 0 0-2.222 4.547A4.265 4.265 0 0 1 17 16.03a4.073 4.073 0 0 1-2.506 1.186 7.795 7.795 0 0 0-4.434 2.279 8.143 8.143 0 0 0-2.223 4.547 4.144 4.144 0 0 1-1.084 2.45 15.536 15.536 0 0 1 .877-14.639 14.984 14.984 0 0 1 5.38-5.185 14.533 14.533 0 0 1 7.152-1.88l-.014.028ZM8.798 29.883c.165-.155.33-.296.494-.465a7.786 7.786 0 0 0 2.223-4.546 4.153 4.153 0 0 1 1.194-2.562 3.845 3.845 0 0 1 2.485-1.21 7.794 7.794 0 0 0 4.434-2.28 8.142 8.142 0 0 0 2.222-4.546 4.157 4.157 0 0 1 1.194-2.689 3.896 3.896 0 0 1 2.511-1.168 7.444 7.444 0 0 0 4.118-2.013 14.703 14.703 0 0 1 3.239 3.913 1.193 1.193 0 0 1-.179.197 3.901 3.901 0 0 1-2.484 1.239 7.767 7.767 0 0 0-4.439 2.274 8.115 8.115 0 0 0-2.217 4.552 4.267 4.267 0 0 1-1.19 2.561 4.075 4.075 0 0 1-2.502 1.211 7.835 7.835 0 0 0-4.452 2.275 8.184 8.184 0 0 0-2.245 4.551 4.493 4.493 0 0 1-.673 1.929 15.052 15.052 0 0 1-3.733-3.224Zm11.35 5.432a14.53 14.53 0 0 1-4.117-.59c.458-.876.755-1.83.878-2.816a4.268 4.268 0 0 1 1.185-2.557 4.076 4.076 0 0 1 2.493-1.215 7.793 7.793 0 0 0 4.443-2.275 8.142 8.142 0 0 0 2.227-4.551 4.267 4.267 0 0 1 1.185-2.557 4.076 4.076 0 0 1 2.494-1.215 7.724 7.724 0 0 0 3.513-1.408c.579 2.25.647 4.604.2 6.885a15.415 15.415 0 0 1-2.777 6.27 14.938 14.938 0 0 1-5.188 4.375 14.549 14.549 0 0 1-6.536 1.584v.07Z" fill="#1D2130"/></svg>
